X: 13025
T: Finbarr Dwyer's
R: reel
M: 4/4
K: Dmixolydian
AD D2 ADFA|d2 Ad cAGE|C2 EC G,CEG|cAGc AGEG|
AD D2 A,DFA|d2 Ad cAGA|d^cde fded|^cAGE FD D2:|
d^cde fgaf|(3efg cg (3efg cg|d2 Ad fgaf|eA^ce d2 dA|
d^cde fgaf|(3efg cg egcg|af (3gfe fde^c|d2 AG FA D2:|
A2 FA DAFA|dfed ^cAGE|G2 EG CGEG|cedc AGEG|
A2 FA DAFA|dfed cAGg|fgag fdAF|GEAG FD D2:|

